X:1
T:Title
%%score { ( 1 3 4 ) | ( 2 5 ) }
L:1/8
Q:1/4=120
M:6/4
K:C
V:1 treble nm="Grand Piano"
V:3 treble 
V:4 treble 
V:2 bass 
V:5 bass 
V:1
 [EG]2 [_E^F]2 [=EG]2 [Ec]2 [GB]2 [=FA]2 | [EG]2 [CE]2 [DF]2 [EG]6 | F2 E2 F2 D2 E2 F2 | %3
w: Haldor~Lillenas * * * * *|||
 [FA]2 [EG]2 [DF]2 [CE]6 | [EG]2 [_E^F]2 [=EG]2 [Gc]2 [GB]2 [GA]2 | [GB]2 [GB]2 [GB]2 [Gd]6 | %6
w: |||
 [^Fd]2 [Fe]2 [Fd]2 [EAc]2 [DGB]2 [CFA]2 |[M:15/8] [B,G]2 [B,DG]-[B,DG] [CEG]2 [DFGB]3- [DFGB]6 | %8
w: ||
[M:6/4] [Ec]2- [G,E-c-]2 [G,E-c-]2 [G,Ec]2 [Ed]2 [Ec]2 | [FB]6 z6 | .[Fd]12 | [Ec]6 c6 | .[Ac]12 | %13
w: |||||
 [EG]6 .[Ec]6 | [^Fd]6 z6 | d2- [B,d-]2 [B,d]2 .G6 | %16
w: |||
 [Ec]2- [G,E-c-]2 [G,E-c-]2 [G,Ec]2 [Fd]2 [Ec]2 | [FB]6 z6 | .[Fd]12 | c6 c6 | .[Ge]12 | %21
w: |||||
[M:7/4] z2 [Af]2- [Af]2- [Af]6 z2 | [eg]4 [Ec]2 [Fd]6 [Ec]2 |[M:6/4] [Ec]12 |] %24
w: |||
V:2
 [C,C]2 [C,C]2 [C,C]2 [C,G,]2 [C,C]2 [C,C]2 | [C,C]2 [C,G,]2 [G,,G,]2 [C,G,]6 | %2
 [G,B,D]2 [G,_B,^C]2 [G,=B,D]2 [F,G,B,]2 [E,G,=C]2 [D,G,D]2 | [G,,G,]2 [A,,G,]2 [B,,G,]2 [C,G,]6 | %4
 [C,C]2 [C,C]2 [C,C]2 [E,C]2 [E,C]2 [_E,C]2 | [D,D]2 [D,D]2 [D,D]2 [D,B,]6 | %6
 [D,A,]2 [D,A,]2 [D,A,]2 D,2 D,2 D,2 |[M:15/8] G,2 G,-G, G,2 G,3- G,6 | %8
[M:6/4] C,2 C,2 C,2 C,2 [C,G,]2 [C,G,]2 | [D,G,]2 D,2 D,2 [G,,G,]4 [G,,G,]2 | %10
 [G,B,]2 G,2 G,2 z2[K:treble] G2 [G,B,F]2 | [C,C]2 E,2 G,2 A,2 G,2 E,2 | F,2 F,2 F,2 F,2 F,2 F,2 | %13
 G,2 G,2 G,2 C,2 E,2 _E,2 | [D,C]2 D,2 D,2 D,4 [D,C]2 | z6 .[G,B,]6 | %16
 C,2 C,2 C,2 C,2 [C,G,]2 [C,G,]2 | [D,G,]2 D,2 D,2 [G,,G,]2 [G,,G,]2 [G,,G,]2 | %18
 [G,B,]2 G,2 G,2 G,2[K:treble] [G,B,G]2 [^G,B,F]2 | E2- [A,E-]2 [A,E]2[K:bass] [G,CE]4 [E,C]2 | %20
 [C,C]2 C,2 C,2 C,2 [D,B,]2 [E,C]2 |[M:7/4] [F,C]2 [F,C]2 F,2 D,2 D,4 F,2 | %22
 [G,CG]4 [G,C]2[K:bass] [G,,B,]6 [C,C]2 |[M:6/4] [C,G,]12 |] %24
V:3
 x12 | x12 | x12 | x12 | x12 | x12 | x12 |[M:15/8] x15 |[M:6/4] .C6 z6 | z2 G,2 G,2 [FB]6 | %10
 z2 B,2 B,2 z2 e2 d2 | z2 C2 C2 [CE]4 [C_B]2 | C2 C2 C2 C2 [CGB]2 [CFA]2 | C2 C2 C2 C2 C2 [CGc]2 | %14
 z2 C2 C2 [C^FA]4 [Fe]2 | F12 | .C6 z6 | z2 G,2 G,2 [FB]4 [FG]2 | z2 B,2 B,2 B,2 e2 d2 | %19
 z2 C2 C2 z4 G2 | z2 C2 C2 C2 [Gd]2 [Gc]2 |[M:7/4] [FA]2 z2 C2 D2 D4 [D^Gd]2 | x14 |[M:6/4] x12 |] %24
V:4
 x12 | x12 | x12 | x12 | x12 | x12 | x12 |[M:15/8] x15 |[M:6/4] x12 | x12 | z6 .B,6 | x12 | x12 | %13
 x12 | x12 | x12 | x12 | x12 | x12 | x12 | x12 |[M:7/4] x14 | x14 |[M:6/4] x12 |] %24
V:5
 x12 | x12 | x12 | x12 | x12 | x12 | x12 |[M:15/8] x15 |[M:6/4] x12 | x12 | z6 .G,6[K:treble] | %11
 x12 | x12 | x12 | x12 | [G,B,]2 G,2 G,2 z2 F,2 D,2 | x12 | x12 | x8[K:treble] x4 | %19
 .[A,C]6[K:bass] z6 | x12 |[M:7/4] x14 | x6[K:bass] x8 |[M:6/4] x12 |] %24

